X: 40413
T: Tom McElvogue's
R: slip jig
M: 9/8
K: Aminor
|:d|cAA c2 A AGd|cAA c2 A efd|cAA c2 A AGE|GED D2 A B2:|
|:G|cee g2 e f2 d|cde gfe fed|cee g2 e fed|edB c2 A B2:|

